!!!OTL: 641. Brautlied.
!!!ODT: 1877
!!!ARE: Europa, Mitteleuropa, Deutschland, Taunus, Wuerges
!!!SCT: E0641A
!!!TXL: @DE
!!!YEM: Copyright 1995, estate of Helmut Schaffrath.
**kern	**text
*ICvox	*
*M6/8	*
*k[b-e-]	*
*B-:	*
!LO:TX:a:t=Etwas langsam.	!
!LO:TX:a:t=Aus Würges im Taunusgebiet. 1877.	!
{8f	Jetʒt
=1	=1
4f	kommt
8e-	die
8dL	fro-
8fJ	.
8b-	-he
=2	=2
(4b-	Stun-
8cc)	.
4a}	-de,
{8f	der
=3	=3
8fL	Au-
8aJ	.
8cc	-gen-
8ccL	-blick
8ddJ	.
8ee-	her-
=4	=4
(4ee-	-an,
8ff	.
4dd)}	.
{8b-	daß
=5	=5
4cc	ich
8cc	von
8ccL	dei-
8ddJ	.
8cc	-nem
=6	=6
(4b-	Mun-
8cc)	.
4dd}	-de
{8dd	die
=7	=7
4ee-	Ro-
8ee-	-ſen
8ee-L	bre-
8ffJ	.
8ee-	-chen
=8	=8
[4.dd	kann.
8dd]	.
8r}	.
==	==
!!!AGN: Liebes - Lied
!!!ONB: ESAC (Essen Associative Code) Database: ERK2
!!!AMT: compound duple
!!!AIN: vox
!!!EED: Helmut Schaffrath
!!!EEV: 1.0
!!!GTL: Liebeslieder [Neuere (aus dem 18. bis 19. Jahrh.) - Liebeslust]
!!!URL-scan: https://rosdok.uni-rostock.de/mcrviewer/recordIdentifier/rosdok_ppn745177662/iview2/phys_0453.iview2?x=77.24729400262345&y=1377.1719265487045&scale=0.7029437510502773&rotation=0&layout=singlePageLayout
!!!ENC: Anna Maria Matuszewska
!!!EEV: 2024/12/12
*-	*-
